li/weather-lightning.svg

<svg role="img" focusable="false" aria-hidden="true" xmlns="http://www.w3.org/2000/svg" viewBox="0 0 14 14" height="1em" width="1em">
  <path d="m 2.4710776,13 0.2516129,0 4.4387101,-6.567742 c 0.05806,-0.116129 0.02581,-0.174193 -0.09678,-0.174193 l -1.832258,0 1.929033,-3.51613 c 0.05806,-0.116129 0.0129,-0.174193 -0.129033,-0.174193 l -2.458064,0 c -0.070968,0 -0.1290325,0.03871 -0.187097,0.116129 L 2.5936532,7.458065 c -0.012903,0.116129 0.025806,0.174193 0.1225807,0.174193 l 1.7741935,0 L 2.4710776,13 Z m 5.483871,-4.083871 0.174194,0 3.3677414,-4.948387 c 0.03226,-0.05161 0.03871,-0.09677 0.02581,-0.129032 -0.0129,-0.03226 -0.05161,-0.04516 -0.109678,-0.04516 l -1.354838,0 1.406451,-2.6 C 11.542046,1.064516 11.503336,1 11.348497,1 L 9.5807546,1 c -0.08387,0 -0.148387,0.03871 -0.193548,0.122581 l -1.341935,3.535484 c -0.01935,0.05806 -0.01935,0.103225 0.0065,0.135483 0.02581,0.03226 0.06452,0.04516 0.122581,0.04516 l 1.316129,0 -1.535484,4.077419 z"/>
</svg>

<svg aria-hidden="true" xmlns="http://www.w3.org/2000/svg" viewBox="0 0 14 14" height="1em" width="1em">
  <path d="M2.471 13h.252L7.16 6.432c.058-.116.026-.174-.096-.174H5.232l1.93-3.516c.057-.116.012-.174-.13-.174H4.574c-.07 0-.129.038-.187.116L2.594 7.458c-.013.116.025.174.122.174H4.49L2.471 13Zm5.484-4.084h.174l3.368-4.948c.032-.052.039-.097.026-.13-.013-.032-.052-.044-.11-.044h-1.355l1.407-2.6c.077-.13.038-.194-.117-.194H9.581c-.084 0-.149.039-.194.123L8.045 4.658c-.02.058-.02.103.007.136.026.032.064.045.122.045H9.49L7.955 8.916z"/>
</svg>
